X: 1
T: the Old Dutch Churn
D: Buddy MacMaster
R: Jig
N: This is a 6/8 version of a tune that was originally a slipjig.
O: Canada
M: 6/8
A: Cape Breton
Z: Richard Robinson 
F: http://www.leeds.ac.uk/music/Info/RRTuneBk/gettune/00000af6.abc
K: Gm
A | "Gm"B3 Bd2 | G2d dcB | "F"A3 Ac2  | F2c cBA | "Gm"B3 Bd2 | G2d dcB | "Dm"dfd cBA | "Gm"G3- G2 :|
a | "Gm"b3 g3  | b2g gfd | "F"a3  f3  | fgf agf | "Gm"b3 g3  | b2g gfd | "Bb"fdB Bdf | "Gm"g3- g2  |
a | "Gm"b3 g3  | b2g gfd | "F"a3  f3  | fgf agf | "Gm"b3 g3  | a2g gfd | "Dm"dfd cBA | "Gm"G3- G2 |]
